X:199
T:Dubh Chnocan
R:Reel
C:James Stewart-Robertson
B:The Athole Collection
M:C|
L:1/8
K:D
A|F2DF ABAF|d2Af eEEA|F2DF ABAg|fdec d2d:|
g|f2df eBBc|dBAF BEEg|f2df eBBc|dBAF D/D/D Dg|
f2df eBBc|dBAF BEEA|F2DF ABAg|fdec d3||

